X: 34532
T: Ríl Máirtín Sheamuis
R: reel
M: 4/4
K: Gmajor
|:B2BG AGGA|B2BG AGGA|B2BG A2AB|dBAB AGGA:|
Bdd2 eddB|GABG AGGA|Bdde d2Bd|egag ged2|
BddB degd|B2BG AGGA|B2BG A2AB|dBAB AGGA||

